X:1
T:F Major Jacob French, 1802
T:Isaac Watts, 1719 (Psalm 97, Part 1)   88. 88. (L. M.)
T:Proclamation
T:Transcribed from Harmony of Harmony, 1802
%%score [ 1 2 3 4 ]
L:1/8
Q:1/4=140
M:4/4
K:F
V:1 treble nm="Treble" snm="Tr."
V:2 treble nm="Counter" snm="C."
V:3 treble-8 nm="Tenor" snm="T."
V:4 bass nm="Bass" snm="B."
V:1
 z4 | z8 | z8 | z4 c4 | A2 B2 c2 d2 | c4 c4 | c8 | c4 AB cB | (A2 d2 c2) A2 | (d4 c2) f2 | e6 c2 | %11
w: |||1.~Praise|him in e- van-|ge- lic|strains;|Let the * whole *|earth~ _ _ in|songs~ _ re-|joice, And|
w: |||2.~Shakes|the wide earth and|cleaves the|tombs;|Be- fore * him *|burns~ _ _ de-|vou- * ring|fire: The|
 d2 g2 f2 d2 | c4 c4 | c8 |: z8 | z8 | z8 | z4 c4 | c2 c2 c2 c2 | c4 d4 | e8 | f4 c2 A2 | %22
w: dis- tant is- lands|join their|voice.||||1.~But|grace and truth sup-|port his|throne;|Though gloo- my|
w: moun- tains melt, the|seas re-|tire.||||2.~Fly|from the sight and|shun the|day;|Then lift your|
 f2 A2 Bc d2 | (c3 f e4) | d4 c2 c2 | c4 (d3 e) | (fe d2 c2) c2 | c8 :| %28
w: clouds his ways * sur-|round,~ _ _|Jus- rice is|their e- *|ter- * * * nal|ground.|
w: heads, ye saints * on|high,~ _ _|And sing, for|your re- *|demp- * * * tion's|nigh.|
V:2
 z4 | z8 | z8 | z4 A4 | F2 G2 A2 G2 | F4 E4 | F8 | F4 F2 E2 | F6 F2 | G6 A2 | G6 A2 | F2 B2 A2 G2 | %12
 F4 [EG]4 | [FA]8 |: z8 | z8 | z8 | z4 F4 | F2 F2 G2 G2 | (A2 G2) F4 | G8 | A4 A2 c2 | %22
 F2 F2 G2 GF | (E3 F G4) | F4 F2 E2 | F4 (F2 G2) | (A2 F2 E2) [EG]2 | [FA]8 :| %28
V:3
 F4 | c3 d c3 B | !wedge!A2 !wedge!A2 !wedge!A4- | A4 f4 | c2 B2 A2 B2 | A4 G4 | F8 | A4 cB AG | %8
w: 1.~He|reigns, the Lord the|Sa- vior, reigns!~|_ Praise|him in e- van-|ge- lic|strains;|Let the * whole *|
w: 2.~In|robes of judg- ment,|Lo! he comes,~|_ _||||Be- fore * him *|
 (F3 G A2) F2 | (B>cBA G2) F2 | c6 A2 | B2 d2 c2 B2 | A4 G4 | F8 |: z8 | z8 | z8 | z4 F4 | %18
w: earth~ _ _ in|songs~ _ _ _ _ re-|joice, And|dis- tant is- lands|join their|voice.||||1.~But|
w: burns~ _ _ de-|vou- * * * * ring|fire; The|moun- tains melt, the|seas re-|tire.||||2.~Fly|
 A2 A2 G2 G2 | (F2 G2) (A2 B2) | c8 | c4 f>g fe | d2 c2 dc BA | (G3 d c4) | B4 A2 G2 | A4 B4 | %26
w: grace and truth sup-|port * his *|throne:|Though gloo- * my *|clouds his ways * sur- *|round,~ _ _|Jus- tice is|their e-|
w: from the sight and|shun * the *|day;|Then lift * your *|heads, ye saints * on *|high,~ _ _|And sing, for|your re-|
 (c2 B2 A2) G2 | F8 :| %28
w: ter- * * nal|ground.|
w: demp- * * tion's|nigh.|
V:4
 F,4 | A,3 B, A,3 G, | !wedge!F,2 !wedge!F,2 !wedge!F,4- | F,4 F,4 | A,2 G,2 F,2 B,,2 | C,4 C,4 | %6
w: ||||||
w: ||||||
 [F,,F,]8 | F,4 F,2 C,2 | (D,3 E, F,2) A,2 | (G,>A,G,F, E,2) D,2 | C,6 F,2 | B,2 G,2 A,2 B,2 | %12
w: ||||||
w: ||||||
 C4 C,4 | F,8 |: z4 F,4 | C,2 B,,2 A,,2 G,,2 | (F,,2 G,,2) (A,,2 B,,2) | C,4 F,4 | %18
w: ||1.~Deep|are his coun- sels,|and * un- *|known, *|
w: ||2.~His|en- e- mies, with|sore * dis- *|may, *|
 F,2 F,2 C,2 C,2 | F,2 E,2 D,4 | C,8 | F,4 F,2 F,2 | B,2 A,2 G,2 G,,2 | C,8 | D,4 F,2 C,2 | %25
w: |||||||
w: |||||||
 F,4 B,,4 | (A,,2 B,,2 C,2) C,2 | F,,8 :| %28
w: |||
w: |||

